gama.ui.shared/icons_svg/light/navigator/files/file.experiment.svg

<svg height="17" viewBox="-830.997 -3501.861 17 17" width="17" xmlns="http://www.w3.org/2000/svg"><g fill="none"><path d="m-830.497-3501.361h15.999997v15.999997h-15.999997z"/><path d="m-826.6574-3500.4814 4.96-.16 3.36-.16 3.2 3.2-.16 11.68h-11.36z" fill="#fff"/><path d="m-814.4978-3497.7386v10.3776c0 1.1046-.8954 2-2 2h-8.8c-1.1045 0-2-.8954-2-2v-12c0-1.1046.8955-2 2-2h7.1776c.1062-.0067.2168.0287.3053.117l3.2 3.2c.0885.0886.1239.199.1171.3054zm-4-2.8224h-6.8c-.6627 0-1.2.5373-1.2 1.2v12c0 .6627.5373 1.2 1.2 1.2h8.8c.6628 0 1.2-.5373 1.2-1.2v-10h-2.8c-.2209 0-.4-.179-.4-.4zm.8.5657v1.8343h1.8343z" fill="#999"/><path d="m-818.9032-3488.343v-.97h-3.47v-2.14h2.96v-.96h-2.96v-2.08h3.47v-.97h-4.55v7.12z" fill="#5c76a1"/></g></svg>

<?xml version="1.0" encoding="UTF-8" standalone="no"?>
<!DOCTYPE svg PUBLIC "-//W3C//DTD SVG 1.1//EN" "http://www.w3.org/Graphics/SVG/1.1/DTD/svg11.dtd">
<svg xmlns="http://www.w3.org/2000/svg" version="1.1" xmlns:xl="http://www.w3.org/1999/xlink" xmlns:dc="http://purl.org/dc/elements/1.1/" viewBox="-830.997 -3501.861 16.999997 16.999997" width="16.999997" height="16.999997">
  <defs/>
  <g id="SOURCES" stroke-opacity="1" stroke-dasharray="none" fill="none" fill-opacity="1" stroke="none">
    <title>SOURCES</title>
    <g id="SOURCES_Light">
      <title>Light</title>
      <g id="Group_9931">
        <g id="Group_8807">
          <g id="Graphic_8713">
            <rect x="-830.497" y="-3501.361" width="15.999997" height="15.999997" stroke="gray" stroke-opacity="0" stroke-linecap="round" stroke-linejoin="round" stroke-width=".25"/>
          </g>
          <g id="Graphic_6567">
            <path d="M -826.6574 -3500.4814 L -821.6974 -3500.6414 L -818.3374 -3500.8014 L -815.1374 -3497.6014 L -815.2974 -3485.9214 L -826.6574 -3485.9214 Z" fill="white"/>
          </g>
          <g id="Graphic_6566">
            <path d="M -814.4978 -3497.7386 L -814.4978 -3487.361 C -814.4978 -3486.2564 -815.3932 -3485.361 -816.4978 -3485.361 L -825.2978 -3485.361 C -826.4023 -3485.361 -827.2978 -3486.2564 -827.2978 -3487.361 L -827.2978 -3499.361 C -827.2978 -3500.4656 -826.4023 -3501.361 -825.2978 -3501.361 L -818.1202 -3501.361 C -818.014 -3501.3677 -817.9034 -3501.3323 -817.8149 -3501.244 L -814.6149 -3498.044 C -814.5264 -3497.9554 -814.491 -3497.845 -814.4978 -3497.7386 Z M -818.4978 -3500.561 L -825.2978 -3500.561 C -825.9605 -3500.561 -826.4978 -3500.0237 -826.4978 -3499.361 L -826.4978 -3487.361 C -826.4978 -3486.6983 -825.9605 -3486.161 -825.2978 -3486.161 L -816.4978 -3486.161 C -815.835 -3486.161 -815.2978 -3486.6983 -815.2978 -3487.361 L -815.2978 -3497.361 L -818.0978 -3497.361 C -818.3187 -3497.361 -818.4978 -3497.54 -818.4978 -3497.761 Z M -817.6978 -3499.9953 L -817.6978 -3498.161 L -815.8635 -3498.161 Z" fill="#999"/>
          </g>
        </g>
        <g id="Graphic_9927">
          <title>E</title>
          <path d="M -818.9032 -3488.343 L -818.9032 -3489.313 L -822.3732 -3489.313 L -822.3732 -3491.453 L -819.4132 -3491.453 L -819.4132 -3492.413 L -822.3732 -3492.413 L -822.3732 -3494.493 L -818.9032 -3494.493 L -818.9032 -3495.463 L -823.4532 -3495.463 L -823.4532 -3488.343 Z" fill="#5c76a1"/>
        </g>
      </g>
    </g>
  </g>
</svg>
